X: 1
T: The Rose of Tralee   [C]
C: Music by Charles W. Glover
C: Words by C. Mordaunt Spencer
N: Published in London in 1845
R: waltz
M: 3/4
L: 1/4
%%staffsep 30
K: C
"(G7)"\
G | "C"GAG |    e>dc |  "F"cFA  |  "C"AG>G |\
[1 "G7"GAG | "C"Gc>c | "D7"c>Bc | "G7"d2  :|\
[2 "G7"Gff | "C"e>cA | "G7"GAc  |  "C"c2  ||
c/d/ |\
| "E7"ee>d | "Am"c2c/B/ | "F"AA/^G/A/B/ | "E7"^GEe \
| "Am"eA"G7"f | "C"ee>d | "E7"c>dB | "Am"A2 ||
"G7"G |\
"C"GA>G |    e>dc |  "F"cFA  | "C"AG>G |\
"G7"Gff | "C"ec>A | "G7"Ge>d | "C"c2   |]

%%sep 1 1 500
%%sep 1 1 500

